Papirus-GTK/24x24/apps/frogr.svg

<svg height="24" viewBox="0 0 24 24" width="24" xmlns="http://www.w3.org/2000/svg"><g transform="translate(0 -1028.3622)"><path d="m4.9930367 1030.3624a.99823867.99869858 0 0 0 -.982543 1.0122v.9986h-.9981388a.99823867.99869858 0 1 0 0 1.9972h.9981388v1.9972a.99823867.99869858 0 0 0  .9981389.9986h1.9962777v5.9916h-1.9962777a.99823867.99869858 0 0 0 -.9981389.9986v1.9972h-.9981388a.99823867.99869858 0 1 0 0 1.9972h.9981388v.9986a.99823867.99869858 0 1 0 1.9962777 0v-3.9944h.9981389v.2106c0 2.0965 1.7806792 3.7838 3.9925557 3.7838h1.996278c2.211877 0 3.992555-1.6873 3.992555-3.7838v-.2184h.99619v3.9885a.9952145.99742323 0 0 0 1.990429 0v-.9966h.996189a.99508878.99729723 0 1 0 0-1.9933h-.996189v-1.9953a.99508878.99729723 0 0 0 -.99424-.9966h-1.992379v-5.9838h1.992379a.99508878.99729723 0 0 0  .99424-.9966v-1.9953h.996189a.99508878.99729723 0 1 0 0-1.9933h-.996189v-.9986a.99508878.99729723 0 0 0 -.978644-1.0103.99508878.99729723 0 0 0 -1.011785 1.0103v3.9886h-.99619v-.2165c0-2.0964-1.780678-3.7838-3.992555-3.7838h-1.996278c-2.2118765 0-3.9925557 1.6874-3.9925557 3.7838v.2106h-.9981389v-3.9944a.99823867.99869858 0 0 0 -1.0137347-1.0122z" fill="#91dd48"/><path d="m4.9921875 2a .99823867.99869858 0 0 0 -.9824219 1.0117188v.5a.99823867.99869858 0 0 1  .9824219-1.0117188.99823867.99869858 0 0 1  1.0136719 1.0117188v-.5a.99823867.99869858 0 0 0 -1.0136719-1.0117188zm14.0019535.0136719a.99508878.99729723 0 0 0 -1.011719 1.0097656v.5a.99508878.99729723 0 0 1 1.011719-1.0097656.99508878.99729723 0 0 1  .978515 1.0097656v-.5a.99508878.99729723 0 0 0 -.978515-1.0097656zm-7.996094.9980469c-2.2118766 0-3.9921876 1.6887562-3.9921876 3.7851562v.2089844h-1v .5h1v-.2089844c0-2.0964 1.780311-3.7851562 3.9921876-3.7851562h1.996094c2.211877 0 3.992187 1.6887562 3.992187 3.7851562v.2167969h.996094v-.5h-.996094v-.2167969c0-2.0964-1.78031-3.7851562-3.992187-3.7851562zm-7.9863282 1a .99823867.99869858 0 0 0 -.9785157 1.2480468.99823867.99869858 0 0 1  .9785157-.7480468h.9980468v-.5zm17.9707032.0097656a.99508878.99729723 0 0 0 -.013672.0019531h-.996094v.5h.996094a.99508878.99729723 0 0 1  .998047.7441406.99508878.99729723 0 0 0 -.984375-1.2460937zm-3.996094 10.9707036v.5h1.992188a.99508878.99729723 0 0 1  .99414.996093v-.5a.99508878.99729723 0 0 0 -.99414-.996093zm-11.9785155.003906a.99823867.99869858 0 0 0 -.9980469.998047v.5a.99823867.99869858 0 0 1  .9980469-.998047h1.9980469v-.5zm15.9746095 2.986328a.99508878.99729723 0 0 0 -.013672.001953h-.996094v.5h.996094a.99508878.99729723 0 0 1  .998047.744141.99508878.99729723 0 0 0 -.984375-1.246094zm-17.9707032.009766a.99823867.99869858 0 0 0 -.9785157 1.248046.99823867.99869858 0 0 1  .9785157-.748046h.9980468v-.5z" fill="#fff" opacity=".2" transform="translate(0 1028.3622)"/><g transform="translate(1)"><circle cx="8" cy="1032.3622" fill="#9a48dd" r="2"/><circle cx="8" cy="1032.8622" opacity=".2" r="1"/><circle cx="8" cy="1032.3622" fill="#fff" r="1"/></g><g transform="translate(7)"><circle cx="8" cy="1032.3622" fill="#9a48dd" r="2"/><circle cx="8" cy="1032.8622" opacity=".2" r="1"/><circle cx="8" cy="1032.3622" fill="#fff" r="1"/></g><path d="m2.0332031 4.7597656a.99823867.99869858 0 0 0  .9785157 1.2480469h.9980468v-.5h-.9980468a.99823867.99869858 0 0 1 -.9785157-.7480469zm19.9335939.0078125a.99508878.99729723 0 0 1 -.998047.7480469h-.996094v.5h.996094a.99508878.99729723 0 0 0  .998047-1.2480469zm-17.9570314 2.7382813v.5a.99823867.99869858 0 0 0  .9980469.9980468h1.9980469v-.5h-1.9980469a.99823867.99869858 0 0 1 -.9980469-.9980468zm15.9628904.0058594a.99508878.99729723 0 0 1 -.99414.9960937h-1.992188v.5h1.992188a.99508878.99729723 0 0 0  .99414-.9960937zm-2.986328 8.9726562v.21875c0 2.0965-1.78031 3.783203-3.992187 3.783203h-1.996094c-2.2118766 0-3.9921876-1.686703-3.9921876-3.783203v-.210937h-1v .5h1v .210937c0 2.0965 1.780311 3.783203 3.9921876 3.783203h1.996094c2.211877 0 3.992187-1.686703 3.992187-3.783203v-.21875h.996094v-.5zm4.980469 2.244141a.99508878.99729723 0 0 1 -.998047.748046h-.996094v.5h.996094a.99508878.99729723 0 0 0  .998047-1.248046zm-19.9335939.011718a.99823867.99869858 0 0 0  .9785157 1.248047h.9980468v-.5h-.9980468a.99823867.99869858 0 0 1 -.9785157-.748047zm15.9492189 1.732422v.5a.9952145.99742323 0 0 0 1.990234 0v-.457031a.9952145.99742323 0 0 1 -1.990234-.042969zm-13.9726564.013672v.5a.99823867.99869858 0 1 0 1.9960938 0v-.429687a.99823867.99869858 0 0 1 -1.9960938-.070313z" opacity=".3" transform="translate(0 1028.3622)"/></g></svg>

<?xml version="1.0" encoding="UTF-8" standalone="no"?>
<!-- Created with Inkscape (http://www.inkscape.org/) -->

<svg
   xmlns:dc="http://purl.org/dc/elements/1.1/"
   xmlns:cc="http://creativecommons.org/ns#"
   xmlns:rdf="http://www.w3.org/1999/02/22-rdf-syntax-ns#"
   xmlns:svg="http://www.w3.org/2000/svg"
   xmlns="http://www.w3.org/2000/svg"
   xmlns:sodipodi="http://sodipodi.sourceforge.net/DTD/sodipodi-0.dtd"
   xmlns:inkscape="http://www.inkscape.org/namespaces/inkscape"
   width="24"
   height="24"
   viewBox="0 0 24 24"
   id="svg4180"
   version="1.1"
   inkscape:version="0.91 r13725"
   sodipodi:docname="frogr.svg">
  <defs
     id="defs4182" />
  <sodipodi:namedview
     id="base"
     pagecolor="#6d6d6d"
     bordercolor="#666666"
     borderopacity="1.0"
     inkscape:pageopacity="0"
     inkscape:pageshadow="2"
     inkscape:zoom="1"
     inkscape:cx="11.597254"
     inkscape:cy="15.684843"
     inkscape:document-units="px"
     inkscape:current-layer="layer1"
     showgrid="false"
     units="px"
     inkscape:window-width="1535"
     inkscape:window-height="876"
     inkscape:window-x="65"
     inkscape:window-y="24"
     inkscape:window-maximized="1" />
  <metadata
     id="metadata4185">
    <rdf:RDF>
      <cc:Work
         rdf:about="">
        <dc:format>image/svg+xml</dc:format>
        <dc:type
           rdf:resource="http://purl.org/dc/dcmitype/StillImage" />
        <dc:title></dc:title>
      </cc:Work>
    </rdf:RDF>
  </metadata>
  <g
     inkscape:label="Layer 1"
     inkscape:groupmode="layer"
     id="layer1"
     transform="translate(0,-1028.3622)">
    <g
       id="g5261">
      <path
         inkscape:connector-curvature="0"
         id="rect4728"
         d="m 4.9930367,1030.3624 a 0.99823867,0.99869858 0 0 0 -0.982543,1.0122 l 0,0.9986 -0.9981388,0 a 0.99823867,0.99869858 0 1 0 0,1.9972 l 0.9981388,0 0,1.9972 a 0.99823867,0.99869858 0 0 0 0.9981389,0.9986 l 1.9962777,0 0,5.9916 -1.9962777,0 a 0.99823867,0.99869858 0 0 0 -0.9981389,0.9986 l 0,1.9972 -0.9981388,0 a 0.99823867,0.99869858 0 1 0 0,1.9972 l 0.9981388,0 0,0.9986 a 0.99823867,0.99869858 0 1 0 1.9962777,0 l 0,-3.9944 0.9981389,0 0,0.2106 c 0,2.0965 1.7806792,3.7838 3.9925557,3.7838 l 1.996278,0 c 2.211877,0 3.992555,-1.6873 3.992555,-3.7838 l 0,-0.2184 0.99619,0 0,3.9885 a 0.9952145,0.99742323 0 0 0 1.990429,0 l 0,-0.9966 0.996189,0 a 0.99508878,0.99729723 0 1 0 0,-1.9933 l -0.996189,0 0,-1.9953 a 0.99508878,0.99729723 0 0 0 -0.99424,-0.9966 l -1.992379,0 0,-5.9838 1.992379,0 a 0.99508878,0.99729723 0 0 0 0.99424,-0.9966 l 0,-1.9953 0.996189,0 a 0.99508878,0.99729723 0 1 0 0,-1.9933 l -0.996189,0 0,-0.9986 a 0.99508878,0.99729723 0 0 0 -0.978644,-1.0103 0.99508878,0.99729723 0 0 0 -1.011785,1.0103 l 0,3.9886 -0.99619,0 0,-0.2165 c 0,-2.0964 -1.780678,-3.7838 -3.992555,-3.7838 l -1.996278,0 c -2.2118765,0 -3.9925557,1.6874 -3.9925557,3.7838 l 0,0.2106 -0.9981389,0 0,-3.9944 a 0.99823867,0.99869858 0 0 0 -1.0137347,-1.0122 z"
         style="opacity:1;fill:#91dd48;fill-opacity:1;stroke:none;stroke-width:1;stroke-linecap:round;stroke-linejoin:round;stroke-miterlimit:4;stroke-dasharray:none;stroke-opacity:1" />
      <path
         id="path5251"
         transform="translate(0,1028.3622)"
         d="M 4.9921875 2 A 0.99823867 0.99869858 0 0 0 4.0097656 3.0117188 L 4.0097656 3.5117188 A 0.99823867 0.99869858 0 0 1 4.9921875 2.5 A 0.99823867 0.99869858 0 0 1 6.0058594 3.5117188 L 6.0058594 3.0117188 A 0.99823867 0.99869858 0 0 0 4.9921875 2 z M 18.994141 2.0136719 A 0.99508878 0.99729723 0 0 0 17.982422 3.0234375 L 17.982422 3.5234375 A 0.99508878 0.99729723 0 0 1 18.994141 2.5136719 A 0.99508878 0.99729723 0 0 1 19.972656 3.5234375 L 19.972656 3.0234375 A 0.99508878 0.99729723 0 0 0 18.994141 2.0136719 z M 10.998047 3.0117188 C 8.7861704 3.0117188 7.0058594 4.700475 7.0058594 6.796875 L 7.0058594 7.0058594 L 6.0058594 7.0058594 L 6.0058594 7.5058594 L 7.0058594 7.5058594 L 7.0058594 7.296875 C 7.0058594 5.200475 8.7861704 3.5117188 10.998047 3.5117188 L 12.994141 3.5117188 C 15.206018 3.5117188 16.986328 5.200475 16.986328 7.296875 L 16.986328 7.5136719 L 17.982422 7.5136719 L 17.982422 7.0136719 L 16.986328 7.0136719 L 16.986328 6.796875 C 16.986328 4.700475 15.206018 3.0117188 12.994141 3.0117188 L 10.998047 3.0117188 z M 3.0117188 4.0117188 A 0.99823867 0.99869858 0 0 0 2.0332031 5.2597656 A 0.99823867 0.99869858 0 0 1 3.0117188 4.5117188 L 4.0097656 4.5117188 L 4.0097656 4.0117188 L 3.0117188 4.0117188 z M 20.982422 4.0214844 A 0.99508878 0.99729723 0 0 0 20.96875 4.0234375 L 19.972656 4.0234375 L 19.972656 4.5234375 L 20.96875 4.5234375 A 0.99508878 0.99729723 0 0 1 21.966797 5.2675781 A 0.99508878 0.99729723 0 0 0 20.982422 4.0214844 z M 16.986328 14.992188 L 16.986328 15.492188 L 18.978516 15.492188 A 0.99508878 0.99729723 0 0 1 19.972656 16.488281 L 19.972656 15.988281 A 0.99508878 0.99729723 0 0 0 18.978516 14.992188 L 16.986328 14.992188 z M 5.0078125 14.996094 A 0.99823867 0.99869858 0 0 0 4.0097656 15.994141 L 4.0097656 16.494141 A 0.99823867 0.99869858 0 0 1 5.0078125 15.496094 L 7.0058594 15.496094 L 7.0058594 14.996094 L 5.0078125 14.996094 z M 20.982422 17.982422 A 0.99508878 0.99729723 0 0 0 20.96875 17.984375 L 19.972656 17.984375 L 19.972656 18.484375 L 20.96875 18.484375 A 0.99508878 0.99729723 0 0 1 21.966797 19.228516 A 0.99508878 0.99729723 0 0 0 20.982422 17.982422 z M 3.0117188 17.992188 A 0.99823867 0.99869858 0 0 0 2.0332031 19.240234 A 0.99823867 0.99869858 0 0 1 3.0117188 18.492188 L 4.0097656 18.492188 L 4.0097656 17.992188 L 3.0117188 17.992188 z "
         style="opacity:0.2;fill:#ffffff;fill-opacity:1;stroke:none;stroke-width:1;stroke-linecap:round;stroke-linejoin:round;stroke-miterlimit:4;stroke-dasharray:none;stroke-opacity:1" />
      <g
         transform="translate(1,0)"
         id="g5213">
        <circle
           style="opacity:1;fill:#9a48dd;fill-opacity:1;stroke:none;stroke-width:4;stroke-linecap:round;stroke-linejoin:round;stroke-miterlimit:4;stroke-dasharray:none;stroke-opacity:1"
           id="path4770"
           cx="8"
           cy="1032.3622"
           r="2" />
        <circle
           style="opacity:0.2;fill:#000000;fill-opacity:1;stroke:none;stroke-width:4;stroke-linecap:round;stroke-linejoin:round;stroke-miterlimit:4;stroke-dasharray:none;stroke-opacity:1"
           id="circle5200"
           cx="8"
           cy="1032.8622"
           r="1" />
        <circle
           r="1"
           cy="1032.3622"
           cx="8"
           id="circle4774"
           style="opacity:1;fill:#ffffff;fill-opacity:1;stroke:none;stroke-width:4;stroke-linecap:round;stroke-linejoin:round;stroke-miterlimit:4;stroke-dasharray:none;stroke-opacity:1" />
      </g>
      <g
         transform="translate(7,0)"
         id="g5218">
        <circle
           r="2"
           cy="1032.3622"
           cx="8"
           id="circle5220"
           style="opacity:1;fill:#9a48dd;fill-opacity:1;stroke:none;stroke-width:4;stroke-linecap:round;stroke-linejoin:round;stroke-miterlimit:4;stroke-dasharray:none;stroke-opacity:1" />
        <circle
           r="1"
           cy="1032.8622"
           cx="8"
           id="circle5222"
           style="opacity:0.2;fill:#000000;fill-opacity:1;stroke:none;stroke-width:4;stroke-linecap:round;stroke-linejoin:round;stroke-miterlimit:4;stroke-dasharray:none;stroke-opacity:1" />
        <circle
           style="opacity:1;fill:#ffffff;fill-opacity:1;stroke:none;stroke-width:4;stroke-linecap:round;stroke-linejoin:round;stroke-miterlimit:4;stroke-dasharray:none;stroke-opacity:1"
           id="circle5224"
           cx="8"
           cy="1032.3622"
           r="1" />
      </g>
      <path
         id="path5256"
         transform="translate(0,1028.3622)"
         d="M 2.0332031 4.7597656 A 0.99823867 0.99869858 0 0 0 3.0117188 6.0078125 L 4.0097656 6.0078125 L 4.0097656 5.5078125 L 3.0117188 5.5078125 A 0.99823867 0.99869858 0 0 1 2.0332031 4.7597656 z M 21.966797 4.7675781 A 0.99508878 0.99729723 0 0 1 20.96875 5.515625 L 19.972656 5.515625 L 19.972656 6.015625 L 20.96875 6.015625 A 0.99508878 0.99729723 0 0 0 21.966797 4.7675781 z M 4.0097656 7.5058594 L 4.0097656 8.0058594 A 0.99823867 0.99869858 0 0 0 5.0078125 9.0039062 L 7.0058594 9.0039062 L 7.0058594 8.5039062 L 5.0078125 8.5039062 A 0.99823867 0.99869858 0 0 1 4.0097656 7.5058594 z M 19.972656 7.5117188 A 0.99508878 0.99729723 0 0 1 18.978516 8.5078125 L 16.986328 8.5078125 L 16.986328 9.0078125 L 18.978516 9.0078125 A 0.99508878 0.99729723 0 0 0 19.972656 8.0117188 L 19.972656 7.5117188 z M 16.986328 16.484375 L 16.986328 16.703125 C 16.986328 18.799625 15.206018 20.486328 12.994141 20.486328 L 10.998047 20.486328 C 8.7861704 20.486328 7.0058594 18.799625 7.0058594 16.703125 L 7.0058594 16.492188 L 6.0058594 16.492188 L 6.0058594 16.992188 L 7.0058594 16.992188 L 7.0058594 17.203125 C 7.0058594 19.299625 8.7861704 20.986328 10.998047 20.986328 L 12.994141 20.986328 C 15.206018 20.986328 16.986328 19.299625 16.986328 17.203125 L 16.986328 16.984375 L 17.982422 16.984375 L 17.982422 16.484375 L 16.986328 16.484375 z M 21.966797 18.728516 A 0.99508878 0.99729723 0 0 1 20.96875 19.476562 L 19.972656 19.476562 L 19.972656 19.976562 L 20.96875 19.976562 A 0.99508878 0.99729723 0 0 0 21.966797 18.728516 z M 2.0332031 18.740234 A 0.99823867 0.99869858 0 0 0 3.0117188 19.988281 L 4.0097656 19.988281 L 4.0097656 19.488281 L 3.0117188 19.488281 A 0.99823867 0.99869858 0 0 1 2.0332031 18.740234 z M 17.982422 20.472656 L 17.982422 20.972656 A 0.9952145 0.99742323 0 0 0 19.972656 20.972656 L 19.972656 20.515625 A 0.9952145 0.99742323 0 0 1 17.982422 20.472656 z M 4.0097656 20.486328 L 4.0097656 20.986328 A 0.99823867 0.99869858 0 1 0 6.0058594 20.986328 L 6.0058594 20.556641 A 0.99823867 0.99869858 0 0 1 4.0097656 20.486328 z "
         style="opacity:0.3;fill:#000000;fill-opacity:1;stroke:none;stroke-width:1;stroke-linecap:round;stroke-linejoin:round;stroke-miterlimit:4;stroke-dasharray:none;stroke-opacity:1" />
    </g>
  </g>
</svg>
